polaris-icons/icons/new-icons/Columns2Major.svg

<svg width="20" height="20" viewBox="0 0 20 20" fill="none" xmlns="http://www.w3.org/2000/svg">
<path fill-rule="evenodd" clip-rule="evenodd" d="M3 6C3 4.34315 4.34315 3 6 3H14C15.6569 3 17 4.34315 17 6V14C17 15.6569 15.6569 17 14 17H6C4.34315 17 3 15.6569 3 14V6ZM10.75 4.5H14C14.8284 4.5 15.5 5.17157 15.5 6V14C15.5 14.8284 14.8284 15.5 14 15.5H10.75V4.5ZM9.25 4.5H6C5.17157 4.5 4.5 5.17157 4.5 6V14C4.5 14.8284 5.17157 15.5 6 15.5H9.25V4.5Z" fill="#4A4A4A"/>
</svg>

<svg viewBox="0 0 20 20" xmlns="http://www.w3.org/2000/svg"><path fill-rule="evenodd" d="M3 6a3 3 0 0 1 3-3h8a3 3 0 0 1 3 3v8a3 3 0 0 1-3 3h-8a3 3 0 0 1-3-3v-8Zm7.75-1.5h3.25a1.5 1.5 0 0 1 1.5 1.5v8a1.5 1.5 0 0 1-1.5 1.5h-3.25v-11Zm-1.5 0h-3.25a1.5 1.5 0 0 0-1.5 1.5v8a1.5 1.5 0 0 0 1.5 1.5h3.25v-11Z" fill="#5C5F62"/></svg>
